X: 30044
T: Off To The Hunt
R: jig
M: 6/8
K: Dmajor
B,EE EFA|BdB AFE|DD/D/D FEF|AFD FED|
EFE EFA|BAB def|edB AF/G/A|1 BGE E2B,:|2 BGE EB/c/d||
efe EE/F/E|efe EE/F/E|ded DD/E/D|FEF AFD|
GFG AGA|BAB def|edB AF/G/A|1 BGE EB/c/d:|2 BGE E3||

